X:198020
T:Battle of the Somme
C: 
B: Scots Guard 
H:
O:Kevin Fraser
Z:Kevin Fraser
Q:3/8=90
K:HP
M:9/8
L:1/8
R:March
U: R = ///
U: r = //
U: V = !accent!
V:M gstem=up stem=down name="Melody"
V:H gstem=up stem=down name="Harmony"
V:C gstem=up stem=down name="C-Harmony"
V:S gstem=up stem=down dyn=up stafflines=1 clef=perc middle=G name="Snare" sname="Snare"
V:B gstem=up stem=down clef=none dyn=up name="Bass"
V:T gstem=up stem=down clef=none dyn=up name="Tenor"
V:BB gstem=up stem=down name="Brass Bass" sname="ABCD-C" transpose=-1  octave=-1 clef=bass
V:BC gstem=up stem=down name="Brass Chord" sname="ABCD-D" transpose=-1
V:BD gstem=up stem=down name="Brass Chord 2" sname="ABCD-B" transpose=-1
V:P gstem=up stem=down name="Piano" octave=-1
I:MIDI=program 110
%%MIDI gracedivider 4
% %score {M H}
%%MIDI program 109 #bagpipes
%%MIDI vol 100
% %landscape off
%%landscape
%%barsperstaff 4
[V:M][: A | {g}f<af {Gdc}d3 {gdc}d>cd | {gef}e>dG {gBd}B3 {G}A3 | {g}B<{d}G{e}B {G}A3{Gdc}d4 | {g}f<af {gef}e3 {A}e2A|
[V:M]     | {g}f<af {Gdc}d3 {gdc}d>cd | {gef}e>dG {gBd}B3 {G}A3 | {g}B<{d}G{e}B {G}A3{gfg}f3 | {g}e>f{g}e {Gdc}d3 {gdG}d3 :]
[V:M]    [: {gde}d>cd {gef}e3 {AGAG}A3 | {g}e>fg {a}f<a-a {Gdc}d3 | {gfg}f>ef {gf}g3 {AGAG}A3|{g}f<af {gef}e3 {A}e2A|
[V:M]     | {g}f<af {Gdc}d3 {gdc}d>cd | {gef}e>dG {gBd}B3 {G}A3 | {g}B<{d}G{e}B {G}A3{gfg}f3 | {g}e>f{g}e {Gdc}d3 {gdG}d3 :]

